svg/enter.svg

<?xml version="1.0" encoding="UTF-8" standalone="no"?>
<svg
   xmlns:dc="http://purl.org/dc/elements/1.1/"
   xmlns:cc="http://creativecommons.org/ns#"
   xmlns:rdf="http://www.w3.org/1999/02/22-rdf-syntax-ns#"
   xmlns:svg="http://www.w3.org/2000/svg"
   xmlns="http://www.w3.org/2000/svg"
   xmlns:sodipodi="http://sodipodi.sourceforge.net/DTD/sodipodi-0.dtd"
   xmlns:inkscape="http://www.inkscape.org/namespaces/inkscape"
   class="ionicon"
   viewBox="0 0 512 512"
   version="1.1"
   id="svg6"
   sodipodi:docname="enter.svg"
   inkscape:version="1.0.2 (e86c8708, 2021-01-15)">
  <metadata
     id="metadata12">
    <rdf:RDF>
      <cc:Work
         rdf:about="">
        <dc:format>image/svg+xml</dc:format>
        <dc:type
           rdf:resource="http://purl.org/dc/dcmitype/StillImage" />
      </cc:Work>
    </rdf:RDF>
  </metadata>
  <defs
     id="defs10" />
  <sodipodi:namedview
     pagecolor="#ffffff"
     bordercolor="#666666"
     borderopacity="1"
     objecttolerance="10"
     gridtolerance="10"
     guidetolerance="10"
     inkscape:pageopacity="0"
     inkscape:pageshadow="2"
     inkscape:window-width="689"
     inkscape:window-height="480"
     id="namedview8"
     showgrid="false"
     inkscape:zoom="1.3027344"
     inkscape:cx="256"
     inkscape:cy="256"
     inkscape:window-x="44"
     inkscape:window-y="25"
     inkscape:window-maximized="0"
     inkscape:current-layer="svg6" />
  <title
     id="title2">Enter</title>
  <path
     style="color:#000000;font-style:normal;font-variant:normal;font-weight:normal;font-stretch:normal;font-size:medium;line-height:normal;font-family:sans-serif;font-variant-ligatures:normal;font-variant-position:normal;font-variant-caps:normal;font-variant-numeric:normal;font-variant-alternates:normal;font-variant-east-asian:normal;font-feature-settings:normal;font-variation-settings:normal;text-indent:0;text-align:start;text-decoration:none;text-decoration-line:none;text-decoration-style:solid;text-decoration-color:#000000;letter-spacing:normal;word-spacing:normal;text-transform:none;writing-mode:lr-tb;direction:ltr;text-orientation:mixed;dominant-baseline:auto;baseline-shift:baseline;text-anchor:start;white-space:normal;shape-padding:0;shape-margin:0;inline-size:0;clip-rule:nonzero;display:inline;overflow:visible;visibility:visible;isolation:auto;mix-blend-mode:normal;color-interpolation:sRGB;color-interpolation-filters:linearRGB;solid-color:#000000;solid-opacity:1;vector-effect:none;fill:#000000;fill-opacity:1;fill-rule:nonzero;stroke-width:1;stroke-linecap:butt;stroke-linejoin:miter;stroke-miterlimit:4;stroke-dasharray:none;stroke-dashoffset:0;stroke-opacity:1;color-rendering:auto;image-rendering:auto;shape-rendering:auto;text-rendering:auto;enable-background:accumulate;stop-color:#000000;stop-opacity:1;stroke:none;opacity:1"
     d="m 160,136 v 104 h 153.37 l -52.68,-52.69 c -5.97647,-6.29063 -5.84961,-16.19849 0.28595,-22.33405 6.13556,-6.13556 16.04342,-6.26242 22.33405,-0.28595 l 80,80 c 6.24345,6.24754 6.24345,16.37246 0,22.62 l -80,80 c -6.29063,5.97647 -16.19849,5.84961 -22.33405,-0.28595 C 254.84039,340.88849 254.71353,330.98063 260.69,324.69 L 313.37,272 H 160 v 104 c 0.0331,30.91424 25.08576,55.96693 56,56 h 208 c 30.91424,-0.0331 55.96693,-25.08576 56,-56 V 136 C 479.96693,105.08576 454.91424,80.033069 424,80 H 216 c -30.91424,0.03307 -55.96693,25.08576 -56,56 z M 48,240 c -8.836562,0 -15.999993,7.16344 -15.999993,16 0,8.83656 7.163431,16 15.999993,16 h 112 v -32 z"
     id="path4" />
</svg>

<svg xmlns="http://www.w3.org/2000/svg" width="512" height="512" viewBox="0 0 512 512"><title>ionicons-v5-j</title><path d="M160,136V240H313.37l-52.68-52.69a16,16,0,0,1,22.62-22.62l80,80a16,16,0,0,1,0,22.62l-80,80a16,16,0,0,1-22.62-22.62L313.37,272H160V376a56.06,56.06,0,0,0,56,56H424a56.06,56.06,0,0,0,56-56V136a56.06,56.06,0,0,0-56-56H216A56.06,56.06,0,0,0,160,136Z"/><path d="M48,240a16,16,0,0,0,0,32H160V240Z"/></svg>
